src/assets/icons/union.svg

<svg width="30" height="30" viewBox="0 0 30 30" fill="none" xmlns="http://www.w3.org/2000/svg">
<path fill-rule="evenodd" clip-rule="evenodd" d="M27.5 14.375C27.5 14.75 27.2206 15 26.875 15H22.5V18.75H26.875C27.2206 18.75 27.5 19.0625 27.5 19.375C27.5 19.75 27.2206 20 26.875 20H22.5V23.75H26.875C27.2206 23.75 27.5 24.0625 27.5 24.375C27.5 24.75 27.2206 25 26.875 25H22.5V26.875C22.5 27.25 22.2206 27.5 21.875 27.5C21.53 27.5 21.25 27.25 21.25 26.875V25H15.625V26.875C15.625 27.25 15.3456 27.5 15 27.5C14.655 27.5 14.375 27.25 14.375 26.875V25H8.75V26.875C8.75 27.25 8.47062 27.5 8.125 27.5C7.78 27.5 7.5 27.25 7.5 26.875V25H3.125C2.78 25 2.5 24.75 2.5 24.375C2.5 24.0625 2.78 23.75 3.125 23.75H7.5V20H3.125C2.78 20 2.5 19.75 2.5 19.375C2.5 19.0625 2.78 18.75 3.125 18.75H7.5V15H3.125C2.78 15 2.5 14.75 2.5 14.375C2.5 14.0625 2.78 13.75 3.125 13.75H7.5V11.875C7.5 11.5625 7.78 11.25 8.125 11.25C8.47062 11.25 8.75 11.5625 8.75 11.875V13.75H14.375V11.875C14.375 11.5625 14.655 11.25 15 11.25C15.3456 11.25 15.625 11.5625 15.625 11.875V13.75H21.25V11.875C21.25 11.5625 21.53 11.25 21.875 11.25C22.2206 11.25 22.5 11.5625 22.5 11.875V13.75H26.875C27.2206 13.75 27.5 14.0625 27.5 14.375ZM21.25 18.75H15.625V15H21.25V18.75ZM21.25 23.75H15.625V20H21.25V23.75ZM14.375 23.75H8.75V20H14.375V23.75ZM14.375 18.75H8.75V15H14.375V18.75Z" fill="white"/>
<path fill-rule="evenodd" clip-rule="evenodd" d="M25 2.5H29.375C29.7206 2.5 30 2.8125 30 3.125V29.375C30 29.75 29.7206 30 29.375 30H0.625C0.28 30 0 29.75 0 29.375V3.125C0 2.8125 0.28 2.5 0.625 2.5H5V0.625C5 0.3125 5.28 0 5.625 0H9.375C9.72062 0 10 0.3125 10 0.625V2.5H20V0.625C20 0.3125 20.28 0 20.625 0H24.375C24.7206 0 25 0.3125 25 0.625V2.5ZM28.75 10V28.75H1.25V10H28.75ZM5 5.625V3.75H1.25V8.75H28.75V3.75H25V5.625C25 6 24.7206 6.25 24.375 6.25H20.625C20.28 6.25 20 6 20 5.625V3.75H10V5.625C10 6 9.72062 6.25 9.375 6.25H5.625C5.28 6.25 5 6 5 5.625ZM8.75 5H6.25V1.25H8.75V5ZM23.75 5H21.25V1.25H23.75V5Z" fill="white"/>
</svg>

<svg width="30" height="30" fill="none" xmlns="http://www.w3.org/2000/svg"><path fill-rule="evenodd" clip-rule="evenodd" d="M27.5 14.375c0 .375-.28.625-.625.625H22.5v3.75h4.375c.346 0 .625.313.625.625 0 .375-.28.625-.625.625H22.5v3.75h4.375c.346 0 .625.313.625.625 0 .375-.28.625-.625.625H22.5v1.875c0 .375-.28.625-.625.625a.607.607 0 0 1-.625-.625V25h-5.625v1.875c0 .375-.28.625-.625.625a.607.607 0 0 1-.625-.625V25H8.75v1.875c0 .375-.28.625-.625.625a.607.607 0 0 1-.625-.625V25H3.125a.607.607 0 0 1-.625-.625c0-.313.28-.625.625-.625H7.5V20H3.125a.607.607 0 0 1-.625-.625c0-.313.28-.625.625-.625H7.5V15H3.125a.607.607 0 0 1-.625-.625c0-.313.28-.625.625-.625H7.5v-1.875c0-.313.28-.625.625-.625.346 0 .625.313.625.625v1.875h5.625v-1.875c0-.313.28-.625.625-.625.346 0 .625.313.625.625v1.875h5.625v-1.875c0-.313.28-.625.625-.625.346 0 .625.313.625.625v1.875h4.375c.346 0 .625.313.625.625zm-6.25 4.375h-5.625V15h5.625v3.75zm0 5h-5.625V20h5.625v3.75zm-6.875 0H8.75V20h5.625v3.75zm0-5H8.75V15h5.625v3.75z" fill="#fff"/><path fill-rule="evenodd" clip-rule="evenodd" d="M25 2.5h4.375c.346 0 .625.313.625.625v26.25c0 .375-.28.625-.625.625H.625A.607.607 0 0 1 0 29.375V3.125C0 2.812.28 2.5.625 2.5H5V.625C5 .312 5.28 0 5.625 0h3.75c.346 0 .625.313.625.625V2.5h10V.625c0-.313.28-.625.625-.625h3.75c.346 0 .625.313.625.625V2.5zm3.75 7.5v18.75H1.25V10h27.5zM5 5.625V3.75H1.25v5h27.5v-5H25v1.875c0 .375-.28.625-.625.625h-3.75A.607.607 0 0 1 20 5.625V3.75H10v1.875c0 .375-.28.625-.625.625h-3.75A.607.607 0 0 1 5 5.625zM8.75 5h-2.5V1.25h2.5V5zm15 0h-2.5V1.25h2.5V5z" fill="#fff"/></svg>
